src/assets/outline/CalendarCircle.svg

<svg width="24" height="24" viewBox="0 0 24 24"  xmlns="http://www.w3.org/2000/svg">
<path d="M12 22.75C6.07 22.75 1.25 17.93 1.25 12C1.25 6.07 6.07 1.25 12 1.25C17.93 1.25 22.75 6.07 22.75 12C22.75 17.93 17.93 22.75 12 22.75ZM12 2.75C6.9 2.75 2.75 6.9 2.75 12C2.75 17.1 6.9 21.25 12 21.25C17.1 21.25 21.25 17.1 21.25 12C21.25 6.9 17.1 2.75 12 2.75Z" />
<path d="M9.89014 8.58008C9.48014 8.58008 9.14014 8.24008 9.14014 7.83008V5.83008C9.14014 5.42008 9.48014 5.08008 9.89014 5.08008C10.3001 5.08008 10.6401 5.42008 10.6401 5.83008V7.83008C10.6401 8.24008 10.3101 8.58008 9.89014 8.58008Z" />
<path d="M14.1099 8.58008C13.6999 8.58008 13.3599 8.24008 13.3599 7.83008V5.83008C13.3599 5.42008 13.6999 5.08008 14.1099 5.08008C14.5199 5.08008 14.8599 5.42008 14.8599 5.83008V7.83008C14.8599 8.24008 14.5199 8.58008 14.1099 8.58008Z" />
<path d="M16.47 10.8896H7.52002C7.11002 10.8896 6.77002 10.5496 6.77002 10.1396C6.77002 9.72965 7.11002 9.38965 7.52002 9.38965H16.47C16.88 9.38965 17.22 9.72965 17.22 10.1396C17.22 10.5496 16.89 10.8896 16.47 10.8896Z" />
<path d="M13.5 18.4199H10.5C7.75 18.4199 5.75 16.4199 5.75 13.6699V10.6699C5.75 7.91992 7.75 5.91992 10.5 5.91992H13.5C16.25 5.91992 18.25 7.91992 18.25 10.6699V13.6699C18.25 16.4199 16.25 18.4199 13.5 18.4199ZM10.5 7.41992C8.25 7.41992 7.25 9.04992 7.25 10.6699V13.6699C7.25 15.2899 8.25 16.9199 10.5 16.9199H13.5C15.75 16.9199 16.75 15.2899 16.75 13.6699V10.6699C16.75 9.04992 15.75 7.41992 13.5 7.41992H10.5Z" />
</svg>

<?xml version="1.0" encoding="UTF-8"?>
<svg width="24" height="24" viewBox="0 0 24 24" xmlns="http://www.w3.org/2000/svg">
 <path d="m12 22.75c-5.93 0-10.75-4.82-10.75-10.75s4.82-10.75 10.75-10.75 10.75 4.82 10.75 10.75-4.82 10.75-10.75 10.75zm0-20c-5.1 0-9.25 4.15-9.25 9.25s4.15 9.25 9.25 9.25 9.25-4.15 9.25-9.25-4.15-9.25-9.25-9.25z"/>
 <path d="m9.8901 8.5801c-0.41 0-0.75-0.34-0.75-0.75v-2c0-0.41 0.34-0.75 0.75-0.75 0.40996 0 0.74996 0.34 0.74996 0.75v2c0 0.41-0.33 0.75-0.74996 0.75z"/>
 <path d="m14.11 8.5801c-0.41 0-0.75-0.34-0.75-0.75v-2c0-0.41 0.34-0.75 0.75-0.75s0.75 0.34 0.75 0.75v2c0 0.41-0.34 0.75-0.75 0.75z"/>
 <path d="m16.47 10.89h-8.95c-0.41 0-0.75-0.34-0.75-0.75 0-0.40995 0.34-0.74995 0.75-0.74995h8.95c0.41 0 0.75 0.34 0.75 0.74995 0 0.41-0.33 0.75-0.75 0.75z"/>
 <path d="m13.5 18.42h-3c-2.75 0-4.75-2-4.75-4.75v-3c0-2.75 2-4.75 4.75-4.75h3c2.75 0 4.75 2 4.75 4.75v3c0 2.75-2 4.75-4.75 4.75zm-3-11c-2.25 0-3.25 1.63-3.25 3.25v3c0 1.62 1 3.25 3.25 3.25h3c2.25 0 3.25-1.63 3.25-3.25v-3c0-1.62-1-3.25-3.25-3.25h-3z"/>
</svg>
